img/twitter.svg

<svg xmlns="http://www.w3.org/2000/svg" viewBox="0 0 448 448"><defs><style>.a{fill:#fff;}</style></defs><path class="a" d="M400,32H48A48.012,48.012,0,0,0,0,80V432a48.012,48.012,0,0,0,48,48H400a48.012,48.012,0,0,0,48-48V80A48.012,48.012,0,0,0,400,32ZM351.1,190.8c.2,2.8.2,5.7.2,8.5,0,86.7-66,186.6-186.6,186.6A185.74,185.74,0,0,1,64,356.5a138.168,138.168,0,0,0,15.8.8,131.494,131.494,0,0,0,81.4-28,65.672,65.672,0,0,1-61.3-45.5c10.1,1.5,19.2,1.5,29.6-1.2A65.591,65.591,0,0,1,77,218.2v-.8a65.542,65.542,0,0,0,29.6,8.3,65.447,65.447,0,0,1-29.2-54.6A64.766,64.766,0,0,1,86.3,138a186.224,186.224,0,0,0,135.2,68.6c-9.3-44.5,24-80.6,64-80.6a65.349,65.349,0,0,1,47.9,20.7A128.517,128.517,0,0,0,375,130.9,65.414,65.414,0,0,1,346.2,167,130.516,130.516,0,0,0,384,156.8,138.049,138.049,0,0,1,351.1,190.8Z" transform="translate(0 -32)"/></svg>

<svg aria-hidden="true" data-prefix="fab" data-icon="twitter-square" class="svg-inline--fa fa-twitter-square fa-w-14" role="img" xmlns="http://www.w3.org/2000/svg" viewBox="0 0 448 512"><path fill="currentColor" d="M400 32H48C21.5 32 0 53.5 0 80v352c0 26.5 21.5 48 48 48h352c26.5 0 48-21.5 48-48V80c0-26.5-21.5-48-48-48zm-48.9 158.8c.2 2.8.2 5.7.2 8.5 0 86.7-66 186.6-186.6 186.6-37.2 0-71.7-10.8-100.7-29.4 5.3.6 10.4.8 15.8.8 30.7 0 58.9-10.4 81.4-28-28.8-.6-53-19.5-61.3-45.5 10.1 1.5 19.2 1.5 29.6-1.2-30-6.1-52.5-32.5-52.5-64.4v-.8c8.7 4.9 18.9 7.9 29.6 8.3a65.447 65.447 0 0 1-29.2-54.6c0-12.2 3.2-23.4 8.9-33.1 32.3 39.8 80.8 65.8 135.2 68.6-9.3-44.5 24-80.6 64-80.6 18.9 0 35.9 7.9 47.9 20.7 14.8-2.8 29-8.3 41.6-15.8-4.9 15.2-15.2 28-28.8 36.1 13.2-1.4 26-5.1 37.8-10.2-8.9 13.1-20.1 24.7-32.9 34z"></path></svg>
